%
(1001)
(T1  D=0.25 CR=0. - ZMIN=-0.3937 - FLAT END MILL)
G90 G94 G17 G91.1
G64 P0.01
G20
G28 G91 Z0.
G90
(2D POCKET3 2)
M9
T1 M6
S5000 M3
G54
M8
G0 Y15.1147
G0 X-29.6242
G43 Z0.4 H1
G1 Z0.3996 F40.
G3 X-29.6247 Y15.1162 Z0.369 I-0.0893 J-0.0286
G3 X-29.6263 Y15.1206 Z0.3387 I-0.0888 J-0.0301
G3 X-29.6294 Y15.1277 Z0.3091 I-0.0872 J-0.0345
G3 X-29.6347 Y15.137 Z0.2804 I-0.084 J-0.0416
G3 X-29.6429 Y15.1478 Z0.2529 I-0.0787 J-0.0509
G3 X-29.6547 Y15.1591 Z0.227 I-0.0705 J-0.0618
G3 X-29.6705 Y15.1694 Z0.2029 I-0.0588 J-0.073
G3 X-29.6903 Y15.1769 Z0.1808 I-0.043 J-0.0833
G3 X-29.7135 Y15.1798 Z0.161 I-0.0231 J-0.0908
G3 X-29.7379 Y15.1766 Z0.1441 I0. J-0.0938
G3 X-29.7619 Y15.1663 Z0.1297 I0.0244 J-0.0905
G3 X-29.7831 Y15.1489 Z0.118 I0.0485 J-0.0803
G3 X-29.7987 Y15.1251 Z0.1091 I0.0696 J-0.0628
G3 X-29.8066 Y15.097 Z0.1031 I0.0853 J-0.039
G3 X-29.8053 Y15.0673 Z0.1 I0.0931 J-0.0109
G3 X-29.6216 Y15.1048 Z0.0846 I0.0919 J0.0188
G3 X-29.8053 Y15.0673 Z0.0691 I-0.0919 J-0.0188
G3 X-29.6216 Y15.1048 Z0.0537 I0.0919 J0.0188
G3 X-29.8053 Y15.0673 Z0.0383 I-0.0919 J-0.0188
G3 X-29.6216 Y15.1048 Z0.0228 I0.0919 J0.0188
G3 X-29.8053 Y15.0673 Z0.0074 I-0.0919 J-0.0188
G3 X-29.6216 Y15.1048 Z-0.008 I0.0919 J0.0188
G3 X-29.8053 Y15.0673 Z-0.0235 I-0.0919 J-0.0188
G3 X-29.6216 Y15.1048 Z-0.0389 I0.0919 J0.0188
G3 X-29.8053 Y15.0673 Z-0.0544 I-0.0919 J-0.0188
G3 X-29.6216 Y15.1048 Z-0.0698 I0.0919 J0.0188
G3 X-29.8053 Y15.0673 Z-0.0852 I-0.0919 J-0.0188
G3 X-29.6216 Y15.1048 Z-0.1007 I0.0919 J0.0188
G3 X-29.8053 Y15.0673 Z-0.1161 I-0.0919 J-0.0188
G3 X-29.6216 Y15.1048 Z-0.1315 I0.0919 J0.0188
G3 X-29.8053 Y15.0673 Z-0.147 I-0.0919 J-0.0188
G3 X-29.6216 Y15.1048 Z-0.1624 I0.0919 J0.0188
G3 X-29.8053 Y15.0673 Z-0.1778 I-0.0919 J-0.0188
G3 X-29.6216 Y15.1048 Z-0.1933 I0.0919 J0.0188
G3 X-29.7135 Y15.1798 Z-0.2 I-0.0919 J-0.0188
G1 X-29.7258 F60.
G3 X-29.7385 Y15.1671 I0. J-0.0128
G1 Y15.1425
G3 X-29.7258 Y15.1297 I0.0128 J0.
G1 X-29.7012
G3 X-29.6884 Y15.1425 I0. J0.0128
G1 Y15.1671
G3 X-29.7012 Y15.1798 I-0.0128 J0.
G1 X-29.7135 F120.
G2 X-29.8229 Y15.2399 I0. J0.1298
G3 X-29.9428 Y15.2049 I-0.0548 J-0.035
G1 Y15.0254
G1 Y14.9254 F60.
G1 X-29.5841 F120.
G1 X-29.4841 F60.
G1 Y15.2841 F120.
G1 Y15.3841 F60.
G1 X-29.8428 F120.
G1 X-29.9428 F60.
G1 Y15.2049 F120.
G3 X-29.8428 Y15.1049 I0.1 J0.
G0 Z0.4
G0 X-29.7155 Y15.1798
G1 Z0.1996 F40.
G3 X-29.7169 Z0.1708 I0.002 J-0.0937
G3 X-29.721 Y15.1795 Z0.1422 I0.0034 J-0.0937
G3 X-29.7279 Y15.1787 Z0.1142 I0.0076 J-0.0934
G3 X-29.7372 Y15.1768 Z0.087 I0.0144 J-0.0926
X-29.7487 Y15.173 Z0.0608 I0.0237 J-0.0907
X-29.7617 Y15.1665 Z0.0359 I0.0352 J-0.0869
X-29.7753 Y15.1566 Z0.0125 I0.0482 J-0.0804
X-29.7882 Y15.1426 Z-0.0092 I0.0618 J-0.0705
X-29.799 Y15.1246 Z-0.0289 I0.0748 J-0.0565
X-29.8057 Y15.1028 Z-0.0465 I0.0855 J-0.0385
X-29.8069 Y15.0785 Z-0.0618 I0.0922 J-0.0167
X-29.8013 Y15.0534 Z-0.0748 I0.0934 J0.0076
X-29.7885 Y15.0298 Z-0.0852 I0.0879 J0.0327
X-29.7704 Y15.0116 Z-0.0924 I0.075 J0.0563
X-29.7475 Y14.9987 Z-0.0974 I0.0569 J0.0745
X-29.7216 Y14.9927 Z-0.1 I0.034 J0.0873
X-29.7053 Y15.1795 Z-0.1154 I0.0082 J0.0934
X-29.7216 Y14.9927 Z-0.1309 I-0.0082 J-0.0934
X-29.7053 Y15.1795 Z-0.1463 I0.0082 J0.0934
X-29.7216 Y14.9927 Z-0.1617 I-0.0082 J-0.0934
X-29.7053 Y15.1795 Z-0.1772 I0.0082 J0.0934
X-29.7216 Y14.9927 Z-0.1926 I-0.0082 J-0.0934
X-29.7053 Y15.1795 Z-0.208 I0.0082 J0.0934
X-29.7216 Y14.9927 Z-0.2235 I-0.0082 J-0.0934
X-29.7053 Y15.1795 Z-0.2389 I0.0082 J0.0934
X-29.7216 Y14.9927 Z-0.2544 I-0.0082 J-0.0934
X-29.7053 Y15.1795 Z-0.2698 I0.0082 J0.0934
X-29.7216 Y14.9927 Z-0.2852 I-0.0082 J-0.0934
X-29.7053 Y15.1795 Z-0.3007 I0.0082 J0.0934
X-29.7216 Y14.9927 Z-0.3161 I-0.0082 J-0.0934
X-29.7053 Y15.1795 Z-0.3315 I0.0082 J0.0934
X-29.7216 Y14.9927 Z-0.347 I-0.0082 J-0.0934
X-29.7053 Y15.1795 Z-0.3624 I0.0082 J0.0934
X-29.7216 Y14.9927 Z-0.3778 I-0.0082 J-0.0934
X-29.6198 Y15.082 Z-0.3858 I0.0082 J0.0934
X-29.7135 Y15.1798 Z-0.3937 I-0.0937 J0.0041
G1 X-29.7258 F60.
G3 X-29.7385 Y15.1671 I0. J-0.0128
G1 Y15.1425
G3 X-29.7258 Y15.1297 I0.0128 J0.
G1 X-29.7012
G3 X-29.6884 Y15.1425 I0. J0.0128
G1 Y15.1671
G3 X-29.7012 Y15.1798 I-0.0128 J0.
G1 X-29.7135 F120.
G2 X-29.8229 Y15.2399 I0. J0.1298
G3 X-29.9428 Y15.2049 I-0.0548 J-0.035
G1 Y15.0254
Y14.9254 F60.
X-29.5841 F120.
X-29.4841 F60.
Y15.2841 F120.
Y15.3841 F60.
X-29.8428 F120.
X-29.9428 F60.
Y15.2049 F120.
G3 X-29.8428 Y15.1049 I0.1 J0.
G0 Z0.4
X-25.6872 Y15.1147
G1 Z0.3996 F40.
G3 X-25.6877 Y15.1162 Z0.369 I-0.0893 J-0.0286
X-25.6893 Y15.1206 Z0.3387 I-0.0888 J-0.0301
X-25.6924 Y15.1277 Z0.3091 I-0.0872 J-0.0345
X-25.6977 Y15.137 Z0.2804 I-0.084 J-0.0416
X-25.7059 Y15.1478 Z0.2529 I-0.0787 J-0.0509
X-25.7177 Y15.1591 Z0.227 I-0.0705 J-0.0618
X-25.7335 Y15.1694 Z0.2029 I-0.0588 J-0.073
X-25.7533 Y15.1769 Z0.1808 I-0.043 J-0.0833
X-25.7765 Y15.1798 Z0.161 I-0.0231 J-0.0908
X-25.8009 Y15.1766 Z0.1441 I0. J-0.0938
X-25.8249 Y15.1663 Z0.1297 I0.0244 J-0.0905
X-25.8461 Y15.1489 Z0.118 I0.0485 J-0.0803
X-25.8617 Y15.1251 Z0.1091 I0.0696 J-0.0628
X-25.8696 Y15.097 Z0.1031 I0.0853 J-0.039
X-25.8683 Y15.0673 Z0.1 I0.0931 J-0.0109
X-25.6846 Y15.1048 Z0.0846 I0.0919 J0.0188
X-25.8683 Y15.0673 Z0.0691 I-0.0919 J-0.0188
X-25.6846 Y15.1048 Z0.0537 I0.0919 J0.0188
X-25.8683 Y15.0673 Z0.0383 I-0.0919 J-0.0188
X-25.6846 Y15.1048 Z0.0228 I0.0919 J0.0188
X-25.8683 Y15.0673 Z0.0074 I-0.0919 J-0.0188
X-25.6846 Y15.1048 Z-0.008 I0.0919 J0.0188
X-25.8683 Y15.0673 Z-0.0235 I-0.0919 J-0.0188
X-25.6846 Y15.1048 Z-0.0389 I0.0919 J0.0188
X-25.8683 Y15.0673 Z-0.0544 I-0.0919 J-0.0188
X-25.6846 Y15.1048 Z-0.0698 I0.0919 J0.0188
X-25.8683 Y15.0673 Z-0.0852 I-0.0919 J-0.0188
X-25.6846 Y15.1048 Z-0.1007 I0.0919 J0.0188
X-25.8683 Y15.0673 Z-0.1161 I-0.0919 J-0.0188
X-25.6846 Y15.1048 Z-0.1315 I0.0919 J0.0188
X-25.8683 Y15.0673 Z-0.147 I-0.0919 J-0.0188
X-25.6846 Y15.1048 Z-0.1624 I0.0919 J0.0188
X-25.8683 Y15.0673 Z-0.1778 I-0.0919 J-0.0188
X-25.6846 Y15.1048 Z-0.1933 I0.0919 J0.0188
X-25.7765 Y15.1798 Z-0.2 I-0.0919 J-0.0188
G1 X-25.7888 F60.
G3 X-25.8015 Y15.1671 I0. J-0.0128
G1 Y15.1425
G3 X-25.7888 Y15.1297 I0.0128 J0.
G1 X-25.7642
G3 X-25.7514 Y15.1425 I0. J0.0128
G1 Y15.1671
G3 X-25.7642 Y15.1798 I-0.0128 J0.
G1 X-25.7765 F120.
G2 X-25.8859 Y15.2399 I0. J0.1298
G3 X-26.0058 Y15.2049 I-0.0548 J-0.035
G1 Y15.0254
Y14.9254 F60.
X-25.6471 F120.
X-25.5471 F60.
Y15.2841 F120.
Y15.3841 F60.
X-25.9058 F120.
X-26.0058 F60.
Y15.2049 F120.
G3 X-25.9058 Y15.1049 I0.1 J0.
G0 Z0.4
X-25.7785 Y15.1798
G1 Z0.1996 F40.
G3 X-25.7799 Z0.1708 I0.002 J-0.0937
X-25.784 Y15.1795 Z0.1422 I0.0034 J-0.0937
X-25.7908 Y15.1787 Z0.1142 I0.0076 J-0.0934
X-25.8002 Y15.1768 Z0.087 I0.0144 J-0.0926
X-25.8116 Y15.173 Z0.0608 I0.0237 J-0.0907
X-25.8247 Y15.1665 Z0.0359 I0.0352 J-0.0869
X-25.8383 Y15.1566 Z0.0125 I0.0482 J-0.0804
X-25.8512 Y15.1426 Z-0.0092 I0.0618 J-0.0705
X-25.8619 Y15.1246 Z-0.0289 I0.0748 J-0.0565
X-25.8687 Y15.1028 Z-0.0465 I0.0855 J-0.0385
X-25.8699 Y15.0785 Z-0.0618 I0.0922 J-0.0167
X-25.8643 Y15.0534 Z-0.0748 I0.0934 J0.0076
X-25.8515 Y15.0298 Z-0.0852 I0.0879 J0.0327
X-25.8334 Y15.0116 Z-0.0924 I0.075 J0.0563
X-25.8105 Y14.9987 Z-0.0974 I0.0569 J0.0745
X-25.7846 Y14.9927 Z-0.1 I0.034 J0.0873
X-25.7683 Y15.1795 Z-0.1154 I0.0082 J0.0934
X-25.7846 Y14.9927 Z-0.1309 I-0.0082 J-0.0934
X-25.7683 Y15.1795 Z-0.1463 I0.0082 J0.0934
X-25.7846 Y14.9927 Z-0.1617 I-0.0082 J-0.0934
X-25.7683 Y15.1795 Z-0.1772 I0.0082 J0.0934
X-25.7846 Y14.9927 Z-0.1926 I-0.0082 J-0.0934
X-25.7683 Y15.1795 Z-0.208 I0.0082 J0.0934
X-25.7846 Y14.9927 Z-0.2235 I-0.0082 J-0.0934
X-25.7683 Y15.1795 Z-0.2389 I0.0082 J0.0934
X-25.7846 Y14.9927 Z-0.2544 I-0.0082 J-0.0934
X-25.7683 Y15.1795 Z-0.2698 I0.0082 J0.0934
X-25.7846 Y14.9927 Z-0.2852 I-0.0082 J-0.0934
X-25.7683 Y15.1795 Z-0.3007 I0.0082 J0.0934
X-25.7846 Y14.9927 Z-0.3161 I-0.0082 J-0.0934
X-25.7683 Y15.1795 Z-0.3315 I0.0082 J0.0934
X-25.7846 Y14.9927 Z-0.347 I-0.0082 J-0.0934
X-25.7683 Y15.1795 Z-0.3624 I0.0082 J0.0934
X-25.7846 Y14.9927 Z-0.3778 I-0.0082 J-0.0934
X-25.6828 Y15.082 Z-0.3858 I0.0082 J0.0934
X-25.7765 Y15.1798 Z-0.3937 I-0.0937 J0.0041
G1 X-25.7888 F60.
G3 X-25.8015 Y15.1671 I0. J-0.0128
G1 Y15.1425
G3 X-25.7888 Y15.1297 I0.0128 J0.
G1 X-25.7642
G3 X-25.7514 Y15.1425 I0. J0.0128
G1 Y15.1671
G3 X-25.7642 Y15.1798 I-0.0128 J0.
G1 X-25.7765 F120.
G2 X-25.8859 Y15.2399 I0. J0.1298
G3 X-26.0058 Y15.2049 I-0.0548 J-0.035
G1 Y15.0254
Y14.9254 F60.
X-25.6471 F120.
X-25.5471 F60.
Y15.2841 F120.
Y15.3841 F60.
X-25.9058 F120.
X-26.0058 F60.
Y15.2049 F120.
G3 X-25.9058 Y15.1049 I0.1 J0.
G0 Z0.4
X-25.9297 Y12.7462
G1 Z0.3996 F40.
G3 X-25.9302 Y12.7477 Z0.369 I-0.0893 J-0.0286
X-25.9318 Y12.7521 Z0.3387 I-0.0888 J-0.0301
X-25.935 Y12.7592 Z0.3091 I-0.0872 J-0.0345
X-25.9403 Y12.7685 Z0.2804 I-0.084 J-0.0416
X-25.9484 Y12.7793 Z0.2529 I-0.0787 J-0.0509
X-25.9602 Y12.7906 Z0.227 I-0.0705 J-0.0618
X-25.976 Y12.8009 Z0.2029 I-0.0588 J-0.073
X-25.9958 Y12.8084 Z0.1808 I-0.043 J-0.0833
X-26.019 Y12.8113 Z0.161 I-0.0231 J-0.0908
X-26.0434 Y12.8081 Z0.1441 I0. J-0.0938
X-26.0674 Y12.7978 Z0.1297 I0.0244 J-0.0905
X-26.0886 Y12.7804 Z0.118 I0.0485 J-0.0803
X-26.1042 Y12.7566 Z0.1091 I0.0696 J-0.0628
X-26.1121 Y12.7285 Z0.1031 I0.0853 J-0.039
X-26.1108 Y12.6988 Z0.1 I0.0931 J-0.0109
X-25.9271 Y12.7363 Z0.0846 I0.0919 J0.0188
X-26.1108 Y12.6988 Z0.0691 I-0.0919 J-0.0188
X-25.9271 Y12.7363 Z0.0537 I0.0919 J0.0188
X-26.1108 Y12.6988 Z0.0383 I-0.0919 J-0.0188
X-25.9271 Y12.7363 Z0.0228 I0.0919 J0.0188
X-26.1108 Y12.6988 Z0.0074 I-0.0919 J-0.0188
X-25.9271 Y12.7363 Z-0.008 I0.0919 J0.0188
X-26.1108 Y12.6988 Z-0.0235 I-0.0919 J-0.0188
X-25.9271 Y12.7363 Z-0.0389 I0.0919 J0.0188
X-26.1108 Y12.6988 Z-0.0544 I-0.0919 J-0.0188
X-25.9271 Y12.7363 Z-0.0698 I0.0919 J0.0188
X-26.1108 Y12.6988 Z-0.0852 I-0.0919 J-0.0188
X-25.9271 Y12.7363 Z-0.1007 I0.0919 J0.0188
X-26.1108 Y12.6988 Z-0.1161 I-0.0919 J-0.0188
X-25.9271 Y12.7363 Z-0.1315 I0.0919 J0.0188
X-26.1108 Y12.6988 Z-0.147 I-0.0919 J-0.0188
X-25.9271 Y12.7363 Z-0.1624 I0.0919 J0.0188
X-26.1108 Y12.6988 Z-0.1778 I-0.0919 J-0.0188
X-25.9271 Y12.7363 Z-0.1933 I0.0919 J0.0188
X-26.019 Y12.8113 Z-0.2 I-0.0919 J-0.0188
G1 X-26.0313 F60.
G3 X-26.0441 Y12.7986 I0. J-0.0128
G1 Y12.774
G3 X-26.0313 Y12.7612 I0.0128 J0.
G1 X-26.0067
G3 X-25.9939 Y12.774 I0. J0.0128
G1 Y12.7986
G3 X-26.0067 Y12.8113 I-0.0128 J0.
G1 X-26.019 F120.
G2 X-26.1284 Y12.8714 I0. J0.1298
G3 X-26.2483 Y12.8364 I-0.0548 J-0.035
G1 Y12.6569
Y12.5569 F60.
X-25.8896 F120.
X-25.7896 F60.
Y12.9156 F120.
Y13.0156 F60.
X-26.1483 F120.
X-26.2483 F60.
Y12.8364 F120.
G3 X-26.1483 Y12.7364 I0.1 J0.
G0 Z0.4
X-26.021 Y12.8113
G1 Z0.1996 F40.
G3 X-26.0224 Z0.1708 I0.002 J-0.0937
X-26.0265 Y12.811 Z0.1422 I0.0034 J-0.0937
X-26.0334 Y12.8102 Z0.1142 I0.0076 J-0.0934
X-26.0427 Y12.8083 Z0.087 I0.0144 J-0.0926
X-26.0542 Y12.8045 Z0.0608 I0.0237 J-0.0907
X-26.0672 Y12.798 Z0.0359 I0.0352 J-0.0869
X-26.0808 Y12.7881 Z0.0125 I0.0482 J-0.0804
X-26.0938 Y12.7741 Z-0.0092 I0.0618 J-0.0705
X-26.1045 Y12.7561 Z-0.0289 I0.0748 J-0.0565
X-26.1112 Y12.7343 Z-0.0465 I0.0855 J-0.0385
X-26.1124 Y12.71 Z-0.0618 I0.0922 J-0.0167
X-26.1068 Y12.6849 Z-0.0748 I0.0934 J0.0076
X-26.094 Y12.6613 Z-0.0852 I0.0879 J0.0327
X-26.0759 Y12.6431 Z-0.0924 I0.075 J0.0562
X-26.053 Y12.6302 Z-0.0974 I0.0569 J0.0745
X-26.0271 Y12.6242 Z-0.1 I0.034 J0.0873
X-26.0108 Y12.811 Z-0.1154 I0.0082 J0.0934
X-26.0271 Y12.6242 Z-0.1309 I-0.0082 J-0.0934
X-26.0108 Y12.811 Z-0.1463 I0.0082 J0.0934
X-26.0271 Y12.6242 Z-0.1617 I-0.0082 J-0.0934
X-26.0108 Y12.811 Z-0.1772 I0.0082 J0.0934
X-26.0271 Y12.6242 Z-0.1926 I-0.0082 J-0.0934
X-26.0108 Y12.811 Z-0.208 I0.0082 J0.0934
X-26.0271 Y12.6242 Z-0.2235 I-0.0082 J-0.0934
X-26.0108 Y12.811 Z-0.2389 I0.0082 J0.0934
X-26.0271 Y12.6242 Z-0.2544 I-0.0082 J-0.0934
X-26.0108 Y12.811 Z-0.2698 I0.0082 J0.0934
X-26.0271 Y12.6242 Z-0.2852 I-0.0082 J-0.0934
X-26.0108 Y12.811 Z-0.3007 I0.0082 J0.0934
X-26.0271 Y12.6242 Z-0.3161 I-0.0082 J-0.0934
X-26.0108 Y12.811 Z-0.3315 I0.0082 J0.0934
X-26.0271 Y12.6242 Z-0.347 I-0.0082 J-0.0934
X-26.0108 Y12.811 Z-0.3624 I0.0082 J0.0934
X-26.0271 Y12.6242 Z-0.3778 I-0.0082 J-0.0934
X-25.9253 Y12.7135 Z-0.3858 I0.0082 J0.0934
X-26.019 Y12.8113 Z-0.3937 I-0.0937 J0.0041
G1 X-26.0313 F60.
G3 X-26.0441 Y12.7986 I0. J-0.0128
G1 Y12.774
G3 X-26.0313 Y12.7612 I0.0128 J0.
G1 X-26.0067
G3 X-25.9939 Y12.774 I0. J0.0128
G1 Y12.7986
G3 X-26.0067 Y12.8113 I-0.0128 J0.
G1 X-26.019 F120.
G2 X-26.1284 Y12.8714 I0. J0.1298
G3 X-26.2483 Y12.8364 I-0.0548 J-0.035
G1 Y12.6569
Y12.5569 F60.
X-25.8896 F120.
X-25.7896 F60.
Y12.9156 F120.
Y13.0156 F60.
X-26.1483 F120.
X-26.2483 F60.
Y12.8364 F120.
G3 X-26.1483 Y12.7364 I0.1 J0.
G0 Z0.4
X-21.9927 Y12.7462
G1 Z0.3996 F40.
G3 X-21.9932 Y12.7477 Z0.369 I-0.0893 J-0.0286
X-21.9948 Y12.7521 Z0.3387 I-0.0888 J-0.0301
X-21.9979 Y12.7592 Z0.3091 I-0.0872 J-0.0345
X-22.0032 Y12.7685 Z0.2804 I-0.084 J-0.0416
X-22.0114 Y12.7793 Z0.2529 I-0.0787 J-0.0509
X-22.0232 Y12.7906 Z0.227 I-0.0705 J-0.0618
X-22.039 Y12.8009 Z0.2029 I-0.0588 J-0.073
X-22.0588 Y12.8084 Z0.1808 I-0.043 J-0.0833
X-22.082 Y12.8113 Z0.161 I-0.0231 J-0.0908
X-22.1064 Y12.8081 Z0.1441 I0. J-0.0938
X-22.1304 Y12.7978 Z0.1297 I0.0244 J-0.0905
X-22.1516 Y12.7804 Z0.118 I0.0485 J-0.0803
X-22.1672 Y12.7566 Z0.1091 I0.0696 J-0.0628
X-22.1751 Y12.7285 Z0.1031 I0.0853 J-0.039
X-22.1738 Y12.6988 Z0.1 I0.0931 J-0.0109
X-21.9901 Y12.7363 Z0.0846 I0.0919 J0.0188
X-22.1738 Y12.6988 Z0.0691 I-0.0919 J-0.0188
X-21.9901 Y12.7363 Z0.0537 I0.0919 J0.0188
X-22.1738 Y12.6988 Z0.0383 I-0.0919 J-0.0188
X-21.9901 Y12.7363 Z0.0228 I0.0919 J0.0188
X-22.1738 Y12.6988 Z0.0074 I-0.0919 J-0.0188
X-21.9901 Y12.7363 Z-0.008 I0.0919 J0.0188
X-22.1738 Y12.6988 Z-0.0235 I-0.0919 J-0.0188
X-21.9901 Y12.7363 Z-0.0389 I0.0919 J0.0188
X-22.1738 Y12.6988 Z-0.0544 I-0.0919 J-0.0188
X-21.9901 Y12.7363 Z-0.0698 I0.0919 J0.0188
X-22.1738 Y12.6988 Z-0.0852 I-0.0919 J-0.0188
X-21.9901 Y12.7363 Z-0.1007 I0.0919 J0.0188
X-22.1738 Y12.6988 Z-0.1161 I-0.0919 J-0.0188
X-21.9901 Y12.7363 Z-0.1315 I0.0919 J0.0188
X-22.1738 Y12.6988 Z-0.147 I-0.0919 J-0.0188
X-21.9901 Y12.7363 Z-0.1624 I0.0919 J0.0188
X-22.1738 Y12.6988 Z-0.1778 I-0.0919 J-0.0188
X-21.9901 Y12.7363 Z-0.1933 I0.0919 J0.0188
X-22.082 Y12.8113 Z-0.2 I-0.0919 J-0.0188
G1 X-22.0943 F60.
G3 X-22.107 Y12.7986 I0. J-0.0128
G1 Y12.774
G3 X-22.0943 Y12.7612 I0.0128 J0.
G1 X-22.0697
G3 X-22.0569 Y12.774 I0. J0.0128
G1 Y12.7986
G3 X-22.0697 Y12.8113 I-0.0128 J0.
G1 X-22.082 F120.
G2 X-22.1914 Y12.8714 I0. J0.1298
G3 X-22.3113 Y12.8364 I-0.0548 J-0.035
G1 Y12.6569
Y12.5569 F60.
X-21.9526 F120.
X-21.8526 F60.
Y12.9156 F120.
Y13.0156 F60.
X-22.2113 F120.
X-22.3113 F60.
Y12.8364 F120.
G3 X-22.2113 Y12.7364 I0.1 J0.
G0 Z0.4
X-22.084 Y12.8113
G1 Z0.1996 F40.
G3 X-22.0854 Z0.1708 I0.002 J-0.0937
X-22.0895 Y12.811 Z0.1422 I0.0034 J-0.0937
X-22.0964 Y12.8102 Z0.1142 I0.0076 J-0.0934
X-22.1057 Y12.8083 Z0.087 I0.0144 J-0.0926
X-22.1172 Y12.8045 Z0.0608 I0.0237 J-0.0907
X-22.1302 Y12.798 Z0.0359 I0.0352 J-0.0869
X-22.1438 Y12.7881 Z0.0125 I0.0482 J-0.0804
X-22.1568 Y12.7741 Z-0.0092 I0.0618 J-0.0705
X-22.1675 Y12.7561 Z-0.0289 I0.0748 J-0.0565
X-22.1742 Y12.7343 Z-0.0465 I0.0855 J-0.0385
X-22.1754 Y12.71 Z-0.0618 I0.0922 J-0.0167
X-22.1698 Y12.6849 Z-0.0748 I0.0934 J0.0076
X-22.157 Y12.6613 Z-0.0852 I0.0879 J0.0327
X-22.1389 Y12.6431 Z-0.0924 I0.075 J0.0562
X-22.116 Y12.6302 Z-0.0974 I0.0569 J0.0745
X-22.0901 Y12.6242 Z-0.1 I0.034 J0.0873
X-22.0738 Y12.811 Z-0.1154 I0.0082 J0.0934
X-22.0901 Y12.6242 Z-0.1309 I-0.0082 J-0.0934
X-22.0738 Y12.811 Z-0.1463 I0.0082 J0.0934
X-22.0901 Y12.6242 Z-0.1617 I-0.0082 J-0.0934
X-22.0738 Y12.811 Z-0.1772 I0.0082 J0.0934
X-22.0901 Y12.6242 Z-0.1926 I-0.0082 J-0.0934
X-22.0738 Y12.811 Z-0.208 I0.0082 J0.0934
X-22.0901 Y12.6242 Z-0.2235 I-0.0082 J-0.0934
X-22.0738 Y12.811 Z-0.2389 I0.0082 J0.0934
X-22.0901 Y12.6242 Z-0.2544 I-0.0082 J-0.0934
X-22.0738 Y12.811 Z-0.2698 I0.0082 J0.0934
X-22.0901 Y12.6242 Z-0.2852 I-0.0082 J-0.0934
X-22.0738 Y12.811 Z-0.3007 I0.0082 J0.0934
X-22.0901 Y12.6242 Z-0.3161 I-0.0082 J-0.0934
X-22.0738 Y12.811 Z-0.3315 I0.0082 J0.0934
X-22.0901 Y12.6242 Z-0.347 I-0.0082 J-0.0934
X-22.0738 Y12.811 Z-0.3624 I0.0082 J0.0934
X-22.0901 Y12.6242 Z-0.3778 I-0.0082 J-0.0934
X-21.9883 Y12.7135 Z-0.3858 I0.0082 J0.0934
X-22.082 Y12.8113 Z-0.3937 I-0.0937 J0.0041
G1 X-22.0943 F60.
G3 X-22.107 Y12.7986 I0. J-0.0128
G1 Y12.774
G3 X-22.0943 Y12.7612 I0.0128 J0.
G1 X-22.0697
G3 X-22.0569 Y12.774 I0. J0.0128
G1 Y12.7986
G3 X-22.0697 Y12.8113 I-0.0128 J0.
G1 X-22.082 F120.
G2 X-22.1914 Y12.8714 I0. J0.1298
G3 X-22.3113 Y12.8364 I-0.0548 J-0.035
G1 Y12.6569
Y12.5569 F60.
X-21.9526 F120.
X-21.8526 F60.
Y12.9156 F120.
Y13.0156 F60.
X-22.2113 F120.
X-22.3113 F60.
Y12.8364 F120.
G3 X-22.2113 Y12.7364 I0.1 J0.
G0 Z0.4
X-32.9216 Y9.4459
G1 Z0.3996 F40.
G3 X-32.9201 Y9.4464 Z0.369 I-0.0286 J0.0893
X-32.9157 Y9.448 Z0.3387 I-0.0301 J0.0888
X-32.9087 Y9.4511 Z0.3091 I-0.0345 J0.0872
X-32.8994 Y9.4564 Z0.2804 I-0.0416 J0.084
X-32.8885 Y9.4646 Z0.2529 I-0.0509 J0.0787
X-32.8772 Y9.4764 Z0.227 I-0.0618 J0.0705
X-32.8669 Y9.4922 Z0.2029 I-0.073 J0.0588
X-32.8594 Y9.512 Z0.1808 I-0.0833 J0.043
X-32.8565 Y9.5352 Z0.161 I-0.0908 J0.0231
X-32.8597 Y9.5596 Z0.1441 I-0.0937 J0.
X-32.87 Y9.5836 Z0.1297 I-0.0905 J-0.0244
X-32.8875 Y9.6048 Z0.118 I-0.0803 J-0.0485
X-32.9113 Y9.6204 Z0.1091 I-0.0628 J-0.0696
X-32.9394 Y9.6283 Z0.1031 I-0.039 J-0.0853
X-32.969 Y9.627 Z0.1 I-0.0109 J-0.0931
X-32.9315 Y9.4433 Z0.0846 I0.0188 J-0.0919
X-32.969 Y9.627 Z0.0691 I-0.0188 J0.0919
X-32.9315 Y9.4433 Z0.0537 I0.0188 J-0.0919
X-32.969 Y9.627 Z0.0383 I-0.0188 J0.0919
X-32.9315 Y9.4433 Z0.0228 I0.0188 J-0.0919
X-32.969 Y9.627 Z0.0074 I-0.0188 J0.0919
X-32.9315 Y9.4433 Z-0.008 I0.0188 J-0.0919
X-32.969 Y9.627 Z-0.0235 I-0.0188 J0.0919
X-32.9315 Y9.4433 Z-0.0389 I0.0188 J-0.0919
X-32.969 Y9.627 Z-0.0544 I-0.0188 J0.0919
X-32.9315 Y9.4433 Z-0.0698 I0.0188 J-0.0919
X-32.969 Y9.627 Z-0.0852 I-0.0188 J0.0919
X-32.9315 Y9.4433 Z-0.1007 I0.0188 J-0.0919
X-32.969 Y9.627 Z-0.1161 I-0.0188 J0.0919
X-32.9315 Y9.4433 Z-0.1315 I0.0188 J-0.0919
X-32.969 Y9.627 Z-0.147 I-0.0188 J0.0919
X-32.9315 Y9.4433 Z-0.1624 I0.0188 J-0.0919
X-32.969 Y9.627 Z-0.1778 I-0.0188 J0.0919
X-32.9315 Y9.4433 Z-0.1933 I0.0188 J-0.0919
X-32.8565 Y9.5352 Z-0.2 I-0.0188 J0.0919
X-33.0385 I-0.091 J0. F60.
X-32.619 I0.2097 J0.
X-33.276 I-0.3285 J0.
X-32.619 I0.3285 J0.
G2 X-32.5287 Y9.6903 I0.1784 J0. F120.
G3 X-32.4906 Y9.8658 I-0.0595 J0.1048
X-33.4519 Y9.7874 I-0.4569 J-0.3306 F60.
G1 X-33.4612 Y9.7687
X-33.4692 Y9.7494
G3 X-32.4258 Y9.3209 I0.5217 J-0.2142
X-32.4906 Y9.8658 I-0.5217 J0.2142
X-32.6302 Y9.8882 I-0.081 J-0.0586 F120.
G0 Z0.4
X-32.8565 Y9.5372
G1 Z0.1996 F40.
G3 X-32.8566 Y9.5386 Z0.1708 I-0.0937 J-0.002
X-32.8568 Y9.5427 Z0.1422 I-0.0937 J-0.0034
X-32.8576 Y9.5495 Z0.1142 I-0.0934 J-0.0076
X-32.8596 Y9.5589 Z0.087 I-0.0926 J-0.0144
X-32.8634 Y9.5703 Z0.0608 I-0.0907 J-0.0237
X-32.8699 Y9.5834 Z0.0359 I-0.0869 J-0.0352
X-32.8798 Y9.597 Z0.0125 I-0.0804 J-0.0482
X-32.8937 Y9.6099 Z-0.0092 I-0.0705 J-0.0618
X-32.9118 Y9.6206 Z-0.0289 I-0.0565 J-0.0748
X-32.9336 Y9.6274 Z-0.0465 I-0.0385 J-0.0855
X-32.9579 Y9.6286 Z-0.0618 I-0.0167 J-0.0922
X-32.983 Y9.623 Z-0.0748 I0.0076 J-0.0934
X-33.0065 Y9.6102 Z-0.0852 I0.0327 J-0.0879
X-33.0248 Y9.5921 Z-0.0924 I0.0563 J-0.075
X-33.0376 Y9.5692 Z-0.0974 I0.0745 J-0.0569
X-33.0437 Y9.5433 Z-0.1 I0.0873 J-0.034
X-32.8569 Y9.527 Z-0.1154 I0.0934 J-0.0082
X-33.0437 Y9.5433 Z-0.1309 I-0.0934 J0.0082
X-32.8569 Y9.527 Z-0.1463 I0.0934 J-0.0082
X-33.0437 Y9.5433 Z-0.1617 I-0.0934 J0.0082
X-32.8569 Y9.527 Z-0.1772 I0.0934 J-0.0082
X-33.0437 Y9.5433 Z-0.1926 I-0.0934 J0.0082
X-32.8569 Y9.527 Z-0.208 I0.0934 J-0.0082
X-33.0437 Y9.5433 Z-0.2235 I-0.0934 J0.0082
X-32.8569 Y9.527 Z-0.2389 I0.0934 J-0.0082
X-33.0437 Y9.5433 Z-0.2544 I-0.0934 J0.0082
X-32.8569 Y9.527 Z-0.2698 I0.0934 J-0.0082
X-33.0437 Y9.5433 Z-0.2852 I-0.0934 J0.0082
X-32.8569 Y9.527 Z-0.3007 I0.0934 J-0.0082
X-33.0437 Y9.5433 Z-0.3161 I-0.0934 J0.0082
X-32.8569 Y9.527 Z-0.3315 I0.0934 J-0.0082
X-33.0437 Y9.5433 Z-0.347 I-0.0934 J0.0082
X-32.8569 Y9.527 Z-0.3624 I0.0934 J-0.0082
X-33.0437 Y9.5433 Z-0.3778 I-0.0934 J0.0082
X-32.9544 Y9.4415 Z-0.3858 I0.0934 J-0.0082
X-32.8565 Y9.5352 Z-0.3937 I0.0041 J0.0937
X-33.0385 I-0.091 J0. F60.
X-32.619 I0.2097 J0.
X-33.276 I-0.3285 J0.
X-32.619 I0.3285 J0.
G2 X-32.5287 Y9.6903 I0.1784 J0. F120.
G3 X-32.4906 Y9.8658 I-0.0595 J0.1048
X-33.4519 Y9.7874 I-0.4569 J-0.3306 F60.
G1 X-33.4612 Y9.7687
X-33.4692 Y9.7494
G3 X-32.4258 Y9.3209 I0.5217 J-0.2142
X-32.4906 Y9.8658 I-0.5217 J0.2142
X-32.6302 Y9.8882 I-0.081 J-0.0586 F120.
G0 Z0.4
X-42.2328 Y9.4462
G1 Z0.3996 F40.
G3 X-42.2313 Y9.4467 Z0.369 I-0.0286 J0.0893
X-42.2269 Y9.4483 Z0.3387 I-0.0301 J0.0888
X-42.2199 Y9.4515 Z0.3091 I-0.0345 J0.0872
X-42.2106 Y9.4568 Z0.2804 I-0.0416 J0.084
X-42.1997 Y9.465 Z0.2529 I-0.0509 J0.0787
X-42.1884 Y9.4767 Z0.227 I-0.0618 J0.0705
X-42.1781 Y9.4925 Z0.2029 I-0.073 J0.0588
X-42.1706 Y9.5124 Z0.1808 I-0.0833 J0.043
X-42.1677 Y9.5355 Z0.161 I-0.0909 J0.0231
X-42.1709 Y9.5599 Z0.1441 I-0.0937 J0.
X-42.1812 Y9.584 Z0.1297 I-0.0905 J-0.0244
X-42.1987 Y9.6051 Z0.118 I-0.0803 J-0.0485
X-42.2225 Y9.6208 Z0.1091 I-0.0628 J-0.0696
X-42.2506 Y9.6286 Z0.1031 I-0.039 J-0.0853
X-42.2802 Y9.6274 Z0.1 I-0.0109 J-0.0931
X-42.2427 Y9.4437 Z0.0846 I0.0188 J-0.0919
X-42.2802 Y9.6274 Z0.0691 I-0.0188 J0.0919
X-42.2427 Y9.4437 Z0.0537 I0.0188 J-0.0919
X-42.2802 Y9.6274 Z0.0383 I-0.0188 J0.0919
X-42.2427 Y9.4437 Z0.0228 I0.0188 J-0.0919
X-42.2802 Y9.6274 Z0.0074 I-0.0188 J0.0919
X-42.2427 Y9.4437 Z-0.008 I0.0188 J-0.0919
X-42.2802 Y9.6274 Z-0.0235 I-0.0188 J0.0919
X-42.2427 Y9.4437 Z-0.0389 I0.0188 J-0.0919
X-42.2802 Y9.6274 Z-0.0544 I-0.0188 J0.0919
X-42.2427 Y9.4437 Z-0.0698 I0.0188 J-0.0919
X-42.2802 Y9.6274 Z-0.0852 I-0.0188 J0.0919
X-42.2427 Y9.4437 Z-0.1007 I0.0188 J-0.0919
X-42.2802 Y9.6274 Z-0.1161 I-0.0188 J0.0919
X-42.2427 Y9.4437 Z-0.1315 I0.0188 J-0.0919
X-42.2802 Y9.6274 Z-0.147 I-0.0188 J0.0919
X-42.2427 Y9.4437 Z-0.1624 I0.0188 J-0.0919
X-42.2802 Y9.6274 Z-0.1778 I-0.0188 J0.0919
X-42.2427 Y9.4437 Z-0.1933 I0.0188 J-0.0919
X-42.1677 Y9.5355 Z-0.2 I-0.0188 J0.0919
X-42.3457 I-0.089 J0. F60.
X-41.9302 I0.2077 J0.
X-42.5832 I-0.3265 J0.
X-41.6927 I0.4452 J0.
X-42.8207 I-0.564 J0.
X-41.6927 I0.564 J0.
X-41.7927 Y9.6355 I-0.1 J0. F120.
G0 Z0.4
X-42.1677 Y9.5376
G1 Z0.1996 F40.
G3 X-42.1678 Y9.5389 Z0.1708 I-0.0937 J-0.002
X-42.168 Y9.5431 Z0.1422 I-0.0937 J-0.0034
X-42.1688 Y9.5499 Z0.1142 I-0.0934 J-0.0076
X-42.1708 Y9.5592 Z0.087 I-0.0926 J-0.0144
X-42.1746 Y9.5707 Z0.0608 I-0.0907 J-0.0237
X-42.1811 Y9.5837 Z0.0359 I-0.0869 J-0.0352
X-42.191 Y9.5973 Z0.0125 I-0.0804 J-0.0482
X-42.2049 Y9.6103 Z-0.0092 I-0.0705 J-0.0618
X-42.223 Y9.621 Z-0.0289 I-0.0565 J-0.0748
X-42.2448 Y9.6278 Z-0.0465 I-0.0385 J-0.0855
X-42.2691 Y9.629 Z-0.0618 I-0.0167 J-0.0922
X-42.2942 Y9.6234 Z-0.0748 I0.0076 J-0.0934
X-42.3177 Y9.6105 Z-0.0852 I0.0327 J-0.0879
X-42.336 Y9.5924 Z-0.0924 I0.0562 J-0.075
X-42.3488 Y9.5696 Z-0.0974 I0.0745 J-0.0569
X-42.3549 Y9.5437 Z-0.1 I0.0873 J-0.034
X-42.1681 Y9.5273 Z-0.1154 I0.0934 J-0.0082
X-42.3549 Y9.5437 Z-0.1309 I-0.0934 J0.0082
X-42.1681 Y9.5273 Z-0.1463 I0.0934 J-0.0082
X-42.3549 Y9.5437 Z-0.1617 I-0.0934 J0.0082
X-42.1681 Y9.5273 Z-0.1772 I0.0934 J-0.0082
X-42.3549 Y9.5437 Z-0.1926 I-0.0934 J0.0082
X-42.1681 Y9.5273 Z-0.208 I0.0934 J-0.0082
X-42.3549 Y9.5437 Z-0.2235 I-0.0934 J0.0082
X-42.1681 Y9.5273 Z-0.2389 I0.0934 J-0.0082
X-42.3549 Y9.5437 Z-0.2544 I-0.0934 J0.0082
X-42.1681 Y9.5273 Z-0.2698 I0.0934 J-0.0082
X-42.3549 Y9.5437 Z-0.2852 I-0.0934 J0.0082
X-42.1681 Y9.5273 Z-0.3007 I0.0934 J-0.0082
X-42.3549 Y9.5437 Z-0.3161 I-0.0934 J0.0082
X-42.1681 Y9.5273 Z-0.3315 I0.0934 J-0.0082
X-42.3549 Y9.5437 Z-0.347 I-0.0934 J0.0082
X-42.1681 Y9.5273 Z-0.3624 I0.0934 J-0.0082
X-42.3549 Y9.5437 Z-0.3778 I-0.0934 J0.0082
X-42.2656 Y9.4419 Z-0.3858 I0.0934 J-0.0082
X-42.1677 Y9.5355 Z-0.3937 I0.0041 J0.0937
X-42.3457 I-0.089 J0. F60.
X-41.9302 I0.2077 J0.
X-42.5832 I-0.3265 J0.
X-41.6927 I0.4452 J0.
X-42.8207 I-0.564 J0.
X-41.6927 I0.564 J0.
X-41.7927 Y9.6355 I-0.1 J0. F120.
G0 Z0.4
X-43.8353 Y20.1649
G1 Z0.3996 F40.
G3 Y20.1664 Z0.369 I-0.0937 J-0.0013
X-43.8356 Y20.1711 Z0.3387 I-0.0937 J-0.0029
X-43.8365 Y20.1788 Z0.3091 I-0.0934 J-0.0075
X-43.8388 Y20.1892 Z0.2804 I-0.0925 J-0.0152
X-43.8435 Y20.202 Z0.2529 I-0.0902 J-0.0257
X-43.8515 Y20.2162 Z0.227 I-0.0855 J-0.0384
X-43.8636 Y20.2307 Z0.2029 I-0.0776 J-0.0527
X-43.8803 Y20.2437 Z0.1808 I-0.0655 J-0.0671
X-43.9016 Y20.2532 Z0.161 I-0.0487 J-0.0801
X-43.9259 Y20.2573 Z0.1441 I-0.0274 J-0.0897
X-43.9519 Y20.2545 Z0.1297 I-0.0031 J-0.0937
X-43.9772 Y20.244 Z0.118 I0.0229 J-0.0909
X-43.9991 Y20.2258 Z0.1091 I0.0482 J-0.0804
X-44.0149 Y20.2012 Z0.1031 I0.0701 J-0.0622
X-44.0223 Y20.1725 Z0.1 I0.0859 J-0.0376
X-43.8357 Y20.1547 Z0.0846 I0.0933 J-0.0089
X-44.0223 Y20.1725 Z0.0691 I-0.0933 J0.0089
X-43.8357 Y20.1547 Z0.0537 I0.0933 J-0.0089
X-44.0223 Y20.1725 Z0.0383 I-0.0933 J0.0089
X-43.8357 Y20.1547 Z0.0228 I0.0933 J-0.0089
X-44.0223 Y20.1725 Z0.0074 I-0.0933 J0.0089
X-43.8357 Y20.1547 Z-0.008 I0.0933 J-0.0089
X-44.0223 Y20.1725 Z-0.0235 I-0.0933 J0.0089
X-43.8357 Y20.1547 Z-0.0389 I0.0933 J-0.0089
X-44.0223 Y20.1725 Z-0.0544 I-0.0933 J0.0089
X-43.8357 Y20.1547 Z-0.0698 I0.0933 J-0.0089
X-44.0223 Y20.1725 Z-0.0852 I-0.0933 J0.0089
X-43.8357 Y20.1547 Z-0.1007 I0.0933 J-0.0089
X-44.0223 Y20.1725 Z-0.1161 I-0.0933 J0.0089
X-43.8357 Y20.1547 Z-0.1315 I0.0933 J-0.0089
X-44.0223 Y20.1725 Z-0.147 I-0.0933 J0.0089
X-43.8357 Y20.1547 Z-0.1624 I0.0933 J-0.0089
X-44.0223 Y20.1725 Z-0.1778 I-0.0933 J0.0089
X-43.8357 Y20.1547 Z-0.1933 I0.0933 J-0.0089
X-43.9016 Y20.2532 Z-0.2 I-0.0933 J0.0089
X-43.9555 Y20.0769 I-0.027 J-0.0882
G2 X-43.7404 Y17.7399 I-0.3707 J-1.2125 F120.
X-43.8308 Y17.6972 I-0.5858 J1.1245 F60.
G3 X-43.8544 Y17.6389 I0.0174 J-0.041
X-43.796 Y17.6153 I0.041 J0.0174
X-43.9294 Y20.1619 I-0.5308 J1.249 F120.
X-45.5154 Y18.2111 I-0.3967 J-1.2976
X-45.464 Y18.1253 I1.1893 J0.6532 F60.
X-45.3895 Y18.1737 I0.0373 J0.0242
G2 X-43.9555 Y20.0769 I1.0633 J0.6906 F120.
X-43.8998 Y20.0072 I-0.0231 J-0.0756
G3 X-43.8485 Y19.9342 I0.0868 J0.0065
G2 X-43.7782 Y17.8288 I-0.4777 J-1.0698
X-43.8685 Y17.7858 I-0.548 J1.0356 F60.
G3 X-43.943 Y17.6012 I0.0551 J-0.1296
X-43.7583 Y17.5267 I0.1296 J0.0551
X-44.8938 Y20.2019 I-0.5677 J1.3376 F120.
X-45.5963 Y18.1586 I0.5677 J-1.3376
X-45.5448 Y18.0729 I1.2702 J0.7058 F60.
X-45.3088 Y18.2262 I0.118 J0.0766
G2 X-43.8485 Y19.9342 I0.9826 J0.6382 F120.
G3 X-43.7164 Y19.9847 I0.0408 J0.0913
G0 Z0.4
G3 X-43.9036 Y20.2538
G1 Z0.1996 F40.
G3 X-43.9049 Y20.2542 Z0.1708 I-0.0255 J-0.0902
G3 X-43.9089 Y20.2551 Z0.1422 I-0.0241 J-0.0906
G3 X-43.9157 Y20.2564 Z0.1142 I-0.0201 J-0.0916
G3 X-43.9252 Y20.2572 Z0.087 I-0.0133 J-0.0928
G3 X-43.9373 Y20.257 Z0.0608 I-0.0038 J-0.0937
G3 X-43.9516 Y20.2546 Z0.0359 I0.0083 J-0.0934
G3 X-43.9675 Y20.249 Z0.0125 I0.0226 J-0.091
G3 X-43.984 Y20.2395 Z-0.0092 I0.0385 J-0.0855
G3 X-43.9995 Y20.2254 Z-0.0289 I0.055 J-0.0759
G3 X-44.0123 Y20.2065 Z-0.0465 I0.0705 J-0.0618
G3 X-44.0206 Y20.1836 Z-0.0618 I0.0833 J-0.043
G3 X-44.0226 Y20.158 Z-0.0748 I0.0916 J-0.02
G3 X-44.0172 Y20.1317 Z-0.0852 I0.0936 J0.0056
G3 X-44.0052 Y20.109 Z-0.0924 I0.0882 J0.0319
G3 X-43.9871 Y20.09 Z-0.0974 I0.0762 J0.0546
G3 X-43.9641 Y20.0766 Z-0.1 I0.0581 J0.0736
G3 X-43.8939 Y20.2505 Z-0.1154 I0.0351 J0.0869
G3 X-43.9641 Y20.0766 Z-0.1309 I-0.0351 J-0.0869
G3 X-43.8939 Y20.2505 Z-0.1463 I0.0351 J0.0869
G3 X-43.9641 Y20.0766 Z-0.1617 I-0.0351 J-0.0869
G3 X-43.8939 Y20.2505 Z-0.1772 I0.0351 J0.0869
G3 X-43.9641 Y20.0766 Z-0.1926 I-0.0351 J-0.0869
G3 X-43.8939 Y20.2505 Z-0.208 I0.0351 J0.0869
G3 X-43.9641 Y20.0766 Z-0.2235 I-0.0351 J-0.0869
G3 X-43.8939 Y20.2505 Z-0.2389 I0.0351 J0.0869
G3 X-43.9641 Y20.0766 Z-0.2544 I-0.0351 J-0.0869
G3 X-43.8939 Y20.2505 Z-0.2698 I0.0351 J0.0869
G3 X-43.9641 Y20.0766 Z-0.2852 I-0.0351 J-0.0869
G3 X-43.8939 Y20.2505 Z-0.3007 I0.0351 J0.0869
G3 X-43.9641 Y20.0766 Z-0.3161 I-0.0351 J-0.0869
G3 X-43.8939 Y20.2505 Z-0.3315 I0.0351 J0.0869
G3 X-43.9641 Y20.0766 Z-0.347 I-0.0351 J-0.0869
G3 X-43.8939 Y20.2505 Z-0.3624 I0.0351 J0.0869
G3 X-43.9641 Y20.0766 Z-0.3778 I-0.0351 J-0.0869
G3 X-43.8406 Y20.1323 Z-0.3858 I0.0351 J0.0869
G3 X-43.9016 Y20.2532 Z-0.3937 I-0.0884 J0.0313
G3 X-43.9555 Y20.0769 I-0.027 J-0.0882
G2 X-43.7404 Y17.7399 I-0.3707 J-1.2125 F120.
G2 X-43.8308 Y17.6972 I-0.5858 J1.1245 F60.
G3 X-43.8544 Y17.6389 I0.0174 J-0.041
G3 X-43.796 Y17.6153 I0.041 J0.0174
G3 X-43.9294 Y20.1619 I-0.5308 J1.249 F120.
G3 X-45.5154 Y18.2111 I-0.3967 J-1.2976
G3 X-45.464 Y18.1253 I1.1893 J0.6532 F60.
G3 X-45.3895 Y18.1737 I0.0373 J0.0242
G2 X-43.9555 Y20.0769 I1.0633 J0.6906 F120.
G2 X-43.8998 Y20.0072 I-0.0231 J-0.0756
G3 X-43.8485 Y19.9342 I0.0868 J0.0065
G2 X-43.7782 Y17.8288 I-0.4777 J-1.0698
G2 X-43.8685 Y17.7858 I-0.548 J1.0356 F60.
G3 X-43.943 Y17.6012 I0.0551 J-0.1296
G3 X-43.7583 Y17.5267 I0.1296 J0.0551
G3 X-44.8938 Y20.2019 I-0.5677 J1.3376 F120.
G3 X-45.5963 Y18.1586 I0.5677 J-1.3376
G3 X-45.5448 Y18.0729 I1.2702 J0.7058 F60.
G3 X-45.3088 Y18.2262 I0.118 J0.0766
G2 X-43.8485 Y19.9342 I0.9826 J0.6382 F120.
G3 X-43.7164 Y19.9847 I0.0408 J0.0913
G0 Z0.4
M9
G28 G91 Z0.
G90
M30
%
